X:68
T: Als Gott die Welt erschaffen hat
N: D0070
O: Europa, Mitteleuropa, Lothringen, Hambach
N: Inzipit = Variante zum Lied
R: geistliches Scherz - Lied
M: 2/4
L: 1/8
K: D
D | DEFG | AAA
A | BcdB | BAz
A | AGGE | DFF
F | EFGE | D2z

@@@ Tune index: 2590
